public/services/responsive-design.svg

<svg width="512" height="512" viewBox="0 0 512 512" fill="none" xmlns="http://www.w3.org/2000/svg">
<path d="M484.096 168.412H455.403V71.4428C455.403 49.2149 437.319 31.132 415.091 31.132H67.7557C45.5278 31.132 27.4449 49.2149 27.4449 71.4428V317.552C27.4449 326.811 30.7089 335.515 36.1919 342.449H12.9789C5.82198 342.448 0 348.295 0 355.48V374.508C0 392.798 14.7689 407.676 32.9219 407.676H218.924C223.067 407.676 226.424 404.319 226.424 400.177C226.424 396.035 223.067 392.677 218.924 392.677H32.9219C23.0399 392.677 14.9999 384.527 14.9999 374.508V357.448H330.96V392.677H253.924C249.781 392.677 246.424 396.035 246.424 400.177C246.424 404.319 249.781 407.676 253.924 407.676H330.96V452.964C330.96 468.351 343.478 480.869 358.864 480.869H484.095C499.482 480.869 511.999 468.351 511.999 452.964C511.999 441.502 511.999 204.517 511.999 196.317C512 180.93 499.482 168.412 484.096 168.412V168.412ZM330.96 342.448H63.2198C51.3378 340.269 42.4458 329.664 42.4458 317.551V71.4428C42.4458 57.4859 53.7998 46.1319 67.7567 46.1319H415.092C429.049 46.1319 440.404 57.4859 440.404 71.4428V168.413H425.927C425.927 157.924 425.927 85.2847 425.927 73.7738C425.927 66.3928 419.922 60.3868 412.541 60.3868C410.498 60.3868 80.7357 60.3868 70.3087 60.3868C62.9268 60.3868 56.9218 66.3918 56.9218 73.7738V314.853C56.9218 322.234 62.9268 328.24 70.3087 328.24H330.961V342.448H330.96ZM410.926 75.3858V95.2987H110.188V75.3858H410.926ZM95.1876 75.3858V95.2987H71.9207V75.3858H95.1876ZM330.96 196.316V313.239H71.9207V110.299H410.926V168.412H358.865C343.478 168.412 330.96 180.93 330.96 196.316ZM345.96 225.761H361.041V240.779H345.96V225.761ZM497 452.964C497 460.08 491.211 465.869 484.096 465.869H358.864C351.749 465.869 345.96 460.08 345.96 452.964V431.469H497V452.964ZM497 416.469H345.96C345.96 355.245 345.96 316.94 345.96 255.779H497V416.469ZM497 240.779H376.041V225.761H497V240.779ZM497 210.761C489.345 210.761 352.786 210.761 345.96 210.761V196.316C345.96 189.201 351.749 183.412 358.864 183.412H484.095C491.21 183.412 496.999 189.201 496.999 196.316V210.761H497Z" fill="white"/>
<path d="M413.508 454.591H429.451C433.594 454.591 436.951 451.233 436.951 447.091C436.951 442.949 433.594 439.591 429.451 439.591H413.508C409.365 439.591 406.008 442.949 406.008 447.091C406.008 451.233 409.365 454.591 413.508 454.591Z" fill="white"/>
<path d="M266.171 199.078L233.987 177.133C223.802 170.187 209.97 177.495 209.97 189.824V233.715C209.97 246.041 223.797 253.353 233.987 246.406L266.171 224.461C275.107 218.368 275.105 205.169 266.171 199.078ZM257.72 212.068L225.536 234.014C225.439 234.079 225.356 234.137 225.163 234.035C224.971 233.933 224.971 233.832 224.971 233.715V189.824C224.971 189.707 224.971 189.606 225.163 189.504C225.239 189.464 225.298 189.448 225.348 189.448C225.424 189.448 225.478 189.485 225.536 189.525L257.72 211.47C257.787 211.516 257.878 211.578 257.878 211.769C257.878 211.961 257.787 212.023 257.72 212.068Z" fill="white"/>
<path d="M236.425 141.552C197.707 141.552 166.207 173.052 166.207 211.769C166.207 250.486 197.707 281.986 236.425 281.986C275.143 281.986 306.642 250.487 306.642 211.769C306.642 173.051 275.143 141.552 236.425 141.552V141.552ZM236.425 266.987C205.978 266.987 181.207 242.217 181.207 211.77C181.207 181.323 205.978 156.553 236.425 156.553C266.871 156.553 291.642 181.324 291.642 211.77C291.642 242.216 266.871 266.987 236.425 266.987Z" fill="white"/>
<path d="M419.905 304.175C410.378 297.679 397.483 304.542 397.483 316.025V354.225C397.483 365.802 410.457 372.517 419.906 366.074L447.916 346.974C456.26 341.286 456.258 328.963 447.917 323.275L419.905 304.175ZM412.483 352.98V317.269L438.669 335.125L412.483 352.98Z" fill="white"/>
<path d="M421.48 397.21C447.579 397.21 471.056 380.716 479.9 356.167C481.304 352.27 479.284 347.973 475.386 346.569C471.49 345.167 467.192 347.186 465.788 351.083C459.08 369.701 441.273 382.21 421.479 382.21C395.516 382.21 374.394 361.087 374.394 335.125C374.394 309.163 395.516 288.04 421.479 288.04C442.105 288.04 460.145 301.242 466.371 320.891C467.621 324.84 471.839 327.027 475.785 325.776C479.734 324.525 481.921 320.31 480.67 316.361C472.462 290.45 448.675 273.041 421.48 273.041C387.247 273.041 359.395 300.893 359.395 335.126C359.395 369.359 387.247 397.21 421.48 397.21Z" fill="white"/>
</svg>

<svg id="Capa_1" enable-background="new 0 0 512.002 512.002" height="512" viewBox="0 0 512.002 512.002" width="512" xmlns="http://www.w3.org/2000/svg"><g><path d="m484.098 168.413h-28.693v-96.97c0-22.228-18.084-40.311-40.312-40.311h-347.337c-22.228 0-40.311 18.083-40.311 40.311v246.11c0 9.259 3.264 17.963 8.747 24.897h-23.213c-7.157-.001-12.979 5.846-12.979 13.031v19.028c0 18.29 14.769 33.169 32.922 33.169h186.003c4.143 0 7.5-3.358 7.5-7.5s-3.357-7.5-7.5-7.5h-186.003c-9.882 0-17.922-8.15-17.922-18.169v-17.06h315.961v35.229h-77.036c-4.143 0-7.5 3.358-7.5 7.5s3.357 7.5 7.5 7.5h77.036v45.288c0 15.387 12.518 27.905 27.904 27.905h125.232c15.387 0 27.904-12.518 27.904-27.905 0-11.462 0-248.448 0-256.648.001-15.387-12.517-27.905-27.903-27.905zm-153.137 174.036h-267.741c-11.882-2.179-20.774-12.784-20.774-24.897v-246.109c0-13.957 11.354-25.311 25.311-25.311h347.337c13.957 0 25.312 11.354 25.312 25.311v96.971h-14.477c0-10.489 0-83.129 0-94.64 0-7.381-6.005-13.387-13.386-13.387-2.043 0-331.807 0-342.234 0-7.382 0-13.387 6.005-13.387 13.387v241.08c0 7.381 6.005 13.387 13.387 13.387h260.653v14.208zm79.967-267.063v19.913h-300.74v-19.913zm-315.74 0v19.913h-23.267v-19.913zm235.773 120.931v116.923h-259.04v-202.941h339.007v58.114h-52.062c-15.387 0-27.905 12.518-27.905 27.904zm15 29.445h15.081v15.018h-15.081zm151.041 227.204c0 7.116-5.789 12.905-12.904 12.905h-125.233c-7.115 0-12.904-5.789-12.904-12.905v-21.495h151.041zm0-36.495h-151.041c0-61.225 0-99.53 0-160.691h151.041zm0-175.691h-120.96v-15.018h120.96zm0-30.018c-7.655 0-144.215 0-151.041 0v-14.445c0-7.115 5.789-12.904 12.904-12.904h125.232c7.115 0 12.904 5.789 12.904 12.904v14.445z"/><path d="m413.51 454.593h15.943c4.143 0 7.5-3.358 7.5-7.5s-3.357-7.5-7.5-7.5h-15.943c-4.143 0-7.5 3.358-7.5 7.5s3.357 7.5 7.5 7.5z"/><path d="m266.171 199.078-32.184-21.945c-10.185-6.946-24.017.362-24.017 12.691v43.891c0 12.326 13.827 19.638 24.017 12.691l32.184-21.945c8.936-6.093 8.934-19.292 0-25.383zm-8.451 12.99-32.184 21.946c-.097.065-.18.123-.373.021-.192-.102-.192-.203-.192-.32v-43.891c0-.117 0-.218.192-.32.076-.04.135-.056.185-.056.076 0 .13.037.188.077l32.184 21.945c.067.046.158.108.158.299 0 .192-.091.254-.158.299z"/><path d="m236.425 141.552c-38.718 0-70.218 31.5-70.218 70.217s31.5 70.217 70.218 70.217 70.217-31.499 70.217-70.217-31.499-70.217-70.217-70.217zm0 125.435c-30.447 0-55.218-24.77-55.218-55.217s24.771-55.217 55.218-55.217c30.446 0 55.217 24.771 55.217 55.217s-24.771 55.217-55.217 55.217z"/><path d="m419.907 304.176c-9.527-6.496-22.422.367-22.422 11.85v38.2c0 11.577 12.974 18.292 22.423 11.849l28.01-19.1c8.344-5.688 8.342-18.011.001-23.699zm-7.422 48.805v-35.711l26.186 17.856z"/><path d="m421.481 397.211c26.099 0 49.576-16.494 58.42-41.043 1.404-3.897-.616-8.194-4.514-9.598-3.896-1.402-8.194.617-9.598 4.514-6.708 18.618-24.515 31.127-44.309 31.127-25.963 0-47.085-21.123-47.085-47.085s21.122-47.085 47.085-47.085c20.626 0 38.666 13.202 44.892 32.851 1.25 3.949 5.468 6.136 9.414 4.885 3.949-1.251 6.136-5.466 4.885-9.415-8.208-25.911-31.995-43.32-59.19-43.32-34.233 0-62.085 27.852-62.085 62.085s27.852 62.084 62.085 62.084z"/></g></svg>
